X:1
T:Title
%%score ( 1 2 ) { 3 | 4 }
L:1/8
Q:1/4=98
M:3/4
K:G
V:1 treble nm="Grand Piano, Soprano"
V:2 treble 
V:3 bass nm="Choir Pad, Primavera, W. J. Kirkpatrick"
V:4 bass 
V:1
 D>D [B,G]2 [B,D]2 | [DG]>[DG] [DA]2 D2 | [DA]>[DA] [DB]3 [DA] | [DG][DB] [DA]4 | %4
w: By~William~James~Kirkpatrick,~1884 * * *||||
 [CD]>[CD] [B,G]2 [B,D]2 | [DG]>[DB] [EA]2 [CE]2 | [EA][Ec] [DB]3 [DA] | [DG][DF] [DG]4 | %8
w: ||||
 [DF]>[EG] [FA]2 [Fd]2 | [DF]>[GB] [FA]2 [DF]2 | [Dd]>[D^c] [DB]3 [DA] | [^CG][DF] [CE]4 | %12
w: ||||
 [DF]>[EG] [FA]2 [Fd]2 | [FB]>[F_B] [G=B]2 [Ge]2- | [Ge]2 [Fd][G^c] [GB][GA] | z2 d4- | d2 z2 z2 | %17
w: |||||
 BA [DG]>[DG] [DG]D | [B,G][DA] [GB]>[GB] [DA]2 | [EG]2 [Fd]4- | [Fd]2 [Gd]>[Gd] [GB]G | %21
w: ||||
 cd [Ge]>[Ge] [Gc][EA] | [Bd][Ac] [GB]3 G | [FB][FA] [DG]4- | [DG]4 z2 |] %25
w: ||||
V:2
 x6 | x6 | x6 | x6 | x6 | x6 | x6 | x6 | x6 | x6 | x6 | x6 | x6 | x6 | x6 | [GB][G^c] F2 G2 | %16
 A2 [DG]>[DG] [DG]D | x6 | x6 | x6 | x6 | x6 | x6 | x6 | x6 |] %25
V:3
 D,>D, D,2 G,2 | B,>B, F,2 F,2 | F,>F, G,3 F, | G,G, F,4 | F,>F, G,2 G,2 | B,>G, G,2 G,2 | %6
 G,G, G,3 C | B,A, B,4 | A,>A, D2 A,2 | A,>D D2 A,2 | A,>A, G,3 A, | A,A, A,4 | %12
 A,>A,[K:treble] D2 A,2 | D>D D2[K:bass] B,2- | B,2 A,E D^C | ^CA, A,4 | C2 B,>B, B,B, | %17
 z2 B,>B, B,B, | z2[K:treble] D>D A,2 | ^C2 D>[K:bass]A, A,2- | A,2 B,>B,[K:treble] DB, | %21
 z2 C>C EC | z2 D>D DB, | DC B,4- | B,4 z2 |] %25
V:4
 z2 G,,2 G,,2 | G,>G, D,2 D,2 | D,>D, z2 z D, | B,,G,, D,4 | D,>D, [G,,D,]2 G,,2 | G,2 C,2 C,2 | %6
 C,C, D,3 D, | D,D, G,,4 | D,>D, D,2 D,2 | D,>D, D,2 D,2 | F,>F, z2 z F, | E,D, A,,4 | %12
 D,>D, D,2 D,2 | D,>D, G,2 G,2- | G,2 z A, A,A, | A,,A,, D,2 E,2 | F,2 G,>G, G,G, | z2 G,>G, G,G, | %18
 z2 G,>G, F,2 | E,2 D,>D, D,2- | D,2 G,>G, G,G, | z2 C,>C, C,C, | z2 D,>D, D,D, | D,D, G,,4- | %24
 G,,4 z2 |] %25

